icons/Message.svg

<svg width="24" height="24" viewBox="0 0 24 24" fill="none" xmlns="http://www.w3.org/2000/svg">
<g id="Message">
<path id="Vector" d="M7.19995 17.15C7.20467 16.916 7.1272 16.6879 6.98102 16.5051C6.83485 16.3224 6.62923 16.1967 6.39995 16.15C5.76771 15.9751 5.21024 15.5977 4.8129 15.0758C4.41556 14.5538 4.20025 13.916 4.19995 13.26V7.42999C4.19995 6.63434 4.51602 5.87128 5.07863 5.30867C5.64124 4.74606 6.4043 4.42999 7.19995 4.42999H16.8C17.5956 4.42999 18.3587 4.74606 18.9213 5.30867C19.4839 5.87128 19.8 6.63434 19.8 7.42999V13.28C19.8 14.0756 19.4839 14.8387 18.9213 15.4013C18.3587 15.9639 17.5956 16.28 16.8 16.28H11.59C11.3276 16.2811 11.0762 16.3852 10.89 16.57L8.04995 19.43C7.97946 19.4991 7.89008 19.5458 7.79309 19.5642C7.69611 19.5826 7.59585 19.5718 7.50495 19.5333C7.41405 19.4948 7.33658 19.4303 7.2823 19.3478C7.22803 19.2654 7.19937 19.1687 7.19995 19.07V17.15Z" stroke="#00153F" stroke-width="1.5" stroke-miterlimit="10"/>
<path id="Vector_2" d="M9 10.3V10.301" stroke="#00153F" stroke-width="2" stroke-linecap="round" stroke-linejoin="round"/>
<path id="Vector_3" d="M12 10.3V10.301" stroke="#00153F" stroke-width="2" stroke-linecap="round" stroke-linejoin="round"/>
<path id="Vector_4" d="M15 10.3V10.301" stroke="#00153F" stroke-width="2" stroke-linecap="round" stroke-linejoin="round"/>
</g>
</svg>

<svg xmlns="http://www.w3.org/2000/svg" fill="none" viewBox="0 0 24 24"><g stroke="currentColor"><path stroke-miterlimit="10" stroke-width="1.5" d="M7.2 17.15a1 1 0 0 0-.8-1 3 3 0 0 1-2.2-2.89V7.43a3 3 0 0 1 3-3h9.6a3 3 0 0 1 3 3v5.85a3 3 0 0 1-3 3h-5.21a1 1 0 0 0-.7.29l-2.84 2.86a.5.5 0 0 1-.85-.36v-1.92Z"/><path stroke-linecap="round" stroke-linejoin="round" stroke-width="2" d="M9 10.3v.001m3-.001v.001m3-.001v.001"/></g></svg>
